icons/1_Primary/Ripe NCC.svg

<svg xmlns="http://www.w3.org/2000/svg" width="1024" height="1024" fill="none">
   <g clip-path="url(#a)">
      <path fill="#F8C18C" d="M512 1024c282.77 0 512-229.23 512-512S794.77 0 512 0 0 229.23 0 512s229.23 512 512 512Z"/>
      <path fill="#fff" d="M646.67 448.25V303.32L512 225.57l-134.67 77.75v145.24L252 520.71v155.5L386.67 754 512 681.5 637.33 754 772 676.21v-155.5l-125.33-72.46ZM512 515.11l-107-61.89 107-61.89 107 61.89-107 61.89ZM395.68 469.4l107 61.89v123.46l-107-61.89V469.4Zm125.65 61.89 107-61.89v123.47l-107 61.58V531.29Zm-125.65-217.4L512 246.72l116.32 67.18v123.46L512 370.19l-116.32 67.17V313.89ZM270.35 665.33V531l107-61.89v134l116.32 67.18-107.3 61.89-116.02-66.85Zm483.3 0-116.32 67.18L530 670.62l116.32-67.18v-134l107 61.89.33 134Z"/>
   </g>
   <defs>
      <clipPath id="a">
         <path fill="#fff" d="M0 0h1024v1024H0z"/>
      </clipPath>
   </defs>
</svg>

<svg width="1024" height="1024" viewBox="0 0 1024 1024" fill="none" xmlns="http://www.w3.org/2000/svg">
<g clip-path="url(#clip0_2_3342)">
<path d="M512 1024C794.77 1024 1024 794.77 1024 512C1024 229.23 794.77 0 512 0C229.23 0 0 229.23 0 512C0 794.77 229.23 1024 512 1024Z" fill="#F8C18C"/>
<path d="M646.67 448.25V303.32L512 225.57L377.33 303.32V448.56L252 520.71V676.21L386.67 754L512 681.5L637.33 754L772 676.21V520.71L646.67 448.25ZM512 515.11L405 453.22L512 391.33L619 453.22L512 515.11ZM395.68 469.4L502.68 531.29V654.75L395.68 592.86V469.4ZM521.33 531.29L628.33 469.4V592.87L521.33 654.45V531.29ZM395.68 313.89L512 246.72L628.32 313.9V437.36L512 370.19L395.68 437.36V313.89ZM270.35 665.33V531L377.35 469.11V603.11L493.67 670.29L386.37 732.18L270.35 665.33ZM753.65 665.33L637.33 732.51L530 670.62L646.32 603.44V469.44L753.32 531.33L753.65 665.33Z" fill="white"/>
</g>
<defs>
<clipPath id="clip0_2_3342">
<rect width="1024" height="1024" fill="white"/>
</clipPath>
</defs>
</svg>
